X:199
M:C|
L:1/8
K:D
g|f2df eBBc|dBAF BEEg|f2df eBBc|dBAF D/D/D Dg|
f2df eBBc|dBAF BEEA|F2DF ABAg|fdec d3||

